_includes/icons/color-bing.svg

<svg fill="#666" height="50" viewBox="0 0 48 48" width="50" xmlns="http://www.w3.org/2000/svg"><path d="m9 5v32l9 6 21-11v-11l-17-6 3 9 6 2-20 10 8-7v-21z" fill="#ffc107"/></svg>

<svg xmlns="http://www.w3.org/2000/svg" viewBox="0 0 48 48" width="50" height="50" fill="#666"><path d="M 9 5 L 9 37 L 18 43 L 39 32 L 39 21 L 22 15 L 25 24 L 31 26 L 11 36 L 19 29 L 19 8 Z" fill="#ffc107"/></svg>
